X:597
M:C|
L:1/8
K:A
||c|d2fd c2ec|BABc BAFc|d2fd c2ec|BABc A/A/A Ac|dfdf cece|

